X: 40023
T: Three Signs Of A Bad Man
R: waltz
M: 3/4
K: Eminor
DE ED EE|ED DE GB|Az AG AB|G2 GG Ez|
DE GB AA|AG BG AA|AE GA Bd|AG AG ED|
EE EB DE|ED DE GB|Az AG AB|G2 GG Ez|
DE GB AA|Bd ed BB|BG Ad BB|1 AG AG ED:|2 AG AB de||
gf ee ed|eg bz gf|ee eB de|BA de BA|
gf ee ed|eg bz ba|ge ga f2|1 dB de BA:|2 dB de ga||
b3 b ab|f3 f ef|B3 B AB|da gf de|
bz ag ab|gz f3 B|de ed ee|eb de ga:|
e2 ed BB|Bd cB (A2|A)G AB c2|BA Bz (E2|E6)||

